images/wwd-mobile-development.svg

<svg width="62" height="65" viewBox="0 0 62 65" fill="none" xmlns="http://www.w3.org/2000/svg">
<path fill-rule="evenodd" clip-rule="evenodd" d="M14.4685 64.5901L14.5861 63.597C14.7419 63.6155 14.9009 63.625 15.0625 63.625H15.5823V64.625H15.0625C14.8615 64.625 14.6633 64.6131 14.4685 64.5901ZM45.4177 64.625V63.625H45.9375C46.0991 63.625 46.2581 63.6155 46.4139 63.597L46.5315 64.5901C46.3367 64.6131 46.1385 64.625 45.9375 64.625H45.4177ZM49.0284 63.5555L48.4097 62.7698C48.6596 62.573 48.8855 62.3471 49.0823 62.0972L49.868 62.7159C49.6223 63.0278 49.3403 63.3098 49.0284 63.5555ZM49.868 2.03411L49.0823 2.65279C48.8855 2.4029 48.6596 2.17697 48.4097 1.98019L49.0284 1.19454C49.3403 1.44019 49.6223 1.72217 49.868 2.03411ZM15.5823 0.125H15.0625C14.8615 0.125 14.6633 0.136858 14.4685 0.159912L14.5861 1.15298C14.7419 1.13453 14.9009 1.125 15.0625 1.125H15.5823V0.125ZM11.9716 1.19454L12.5903 1.98019C12.3404 2.17697 12.1145 2.4029 11.9177 2.65279L11.132 2.0341C11.3777 1.72217 11.6597 1.44019 11.9716 1.19454ZM11.132 62.7159L11.9177 62.0972C12.1145 62.3471 12.3404 62.573 12.5903 62.7698L11.9716 63.5555C11.6597 63.3098 11.3777 63.0278 11.132 62.7159ZM10.0625 37.6696H11.0625V36.6981H10.0625V37.6696ZM10.0625 34.4637H11.0625V33.4922H10.0625V34.4637ZM10.0625 31.2578H11.0625V30.2863H10.0625V31.2578ZM10.0625 28.0519H11.0625V27.0804H10.0625V28.0519ZM10.0625 24.846H11.0625V23.8745H10.0625V24.846ZM10.0625 21.6401H11.0625V20.6687H10.0625V21.6401ZM10.0625 18.4343H11.0625V17.4628H10.0625V18.4343ZM10.0625 15.2284H11.0625V14.2569H10.0625V15.2284ZM10.0625 12.0225H11.0625V11.051H10.0625V12.0225ZM10.0625 8.81662H11.0625V7.84513H10.0625V8.81662ZM10.0625 5.61073H11.0625V5.125C11.0625 4.96339 11.072 4.80443 11.0905 4.64857L10.0974 4.53103C10.0744 4.72581 10.0625 4.92402 10.0625 5.125V5.61073ZM17.9733 0.125V1.125H19.0128V0.125H17.9733ZM21.4038 0.125V1.125H22.4434V0.125H21.4038ZM24.8344 0.125V1.125H25.8739V0.125H24.8344ZM28.2649 0.125V1.125H29.3045V0.125H28.2649ZM31.6955 0.125V1.125H32.7351V0.125H31.6955ZM35.1261 0.125V1.125H36.1656V0.125H35.1261ZM38.5566 0.125V1.125H39.5962V0.125H38.5566ZM41.9872 0.125V1.125H43.0267V0.125H41.9872ZM45.4177 0.125V1.125H45.9375C46.0991 1.125 46.2581 1.13453 46.4139 1.15298L46.5315 0.159912C46.3367 0.136858 46.1385 0.125 45.9375 0.125H45.4177ZM50.9375 27.0804H49.9375V28.0519H50.9375V27.0804ZM50.9375 30.2863H49.9375V31.2578H50.9375V30.2863ZM50.9375 33.4922H49.9375V34.4637H50.9375V33.4922ZM50.9375 36.6981H49.9375V37.6696H50.9375V36.6981ZM50.9375 39.904H49.9375V40.8755H50.9375V39.904ZM50.9375 43.1099H49.9375V44.0813H50.9375V43.1099ZM50.9375 46.3157H49.9375V47.2872H50.9375V46.3157ZM50.9375 49.5216H49.9375V50.4931H50.9375V49.5216ZM50.9375 52.7275H49.9375V53.699H50.9375V52.7275ZM50.9375 55.9334H49.9375V56.9049H50.9375V55.9334ZM50.9375 59.1393H49.9375V59.625C49.9375 59.7866 49.928 59.9456 49.9095 60.1014L50.9026 60.219C50.9256 60.0242 50.9375 59.826 50.9375 59.625V59.1393ZM43.0267 64.625V63.625H41.9872V64.625H43.0267ZM39.5962 64.625V63.625H38.5566V64.625H39.5962ZM36.1656 64.625V63.625H35.1261V64.625H36.1656ZM32.7351 64.625V63.625H31.6955V64.625H32.7351ZM29.3045 64.625V63.625H28.2649V64.625H29.3045ZM25.8739 64.625V63.625H24.8344V64.625H25.8739ZM22.4434 64.625V63.625H21.4038V64.625H22.4434ZM19.0128 64.625V63.625H17.9733V64.625H19.0128Z" fill="white"/>
<rect x="14.75" y="9.26562" width="5" height="5" rx="1" fill="white" fill-opacity="0.7"/>
<rect x="23.5" y="9.26562" width="5" height="5" rx="1" fill="white" fill-opacity="0.7"/>
<rect x="14.6875" y="19.5156" width="5" height="5" rx="1" fill="white" fill-opacity="0.7"/>
<rect x="23.4375" y="19.5156" width="5" height="5" rx="1" fill="white" fill-opacity="0.7"/>
<rect x="14.6875" y="29.7656" width="5" height="5" rx="1" fill="white" fill-opacity="0.7"/>
<rect x="23.4375" y="29.7656" width="5" height="5" rx="1" fill="white" fill-opacity="0.7"/>
<rect x="32.1875" y="29.9219" width="5" height="5" rx="1" fill="white" fill-opacity="0.7"/>
<rect x="40.9375" y="29.9219" width="5" height="5" rx="1" fill="white" fill-opacity="0.7"/>
<rect x="32.1001" y="39.9219" width="5" height="5" rx="1" fill="white" fill-opacity="0.7"/>
<rect x="32.0532" y="49.9219" width="5" height="5" rx="1" fill="white" fill-opacity="0.7"/>
<rect x="40.9751" y="39.9219" width="5" height="5" rx="1" fill="white" fill-opacity="0.7"/>
<rect x="40.9282" y="49.9219" width="5" height="5" rx="1" fill="white" fill-opacity="0.7"/>
<path d="M38.0032 14.9312L37.6643 14.5635L37.276 14.9214L37.6545 15.2896L38.0032 14.9312ZM41.8955 10.6636L37.6643 14.5635L38.342 15.2988L42.5732 11.3989L41.8955 10.6636ZM37.6545 15.2896L41.8857 19.4053L42.583 18.6885L38.3518 14.5727L37.6545 15.2896Z" fill="#7ACC00"/>
<path d="M55.2344 14.9312L55.5732 14.5635L55.9615 14.9214L55.583 15.2896L55.2344 14.9312ZM51.342 10.6636L55.5732 14.5635L54.8955 15.2988L50.6643 11.3989L51.342 10.6636ZM55.583 15.2896L51.3518 19.4053L50.6545 18.6885L54.8857 14.5727L55.583 15.2896Z" fill="#7ACC00"/>
<path d="M48.5625 10.875L44.9688 19.2188" stroke="#7ACC00"/>
<path d="M32.5625 18.5V5.5H54.375C57.6887 5.5 60.375 8.18629 60.375 11.5V24.5H38.5625C35.2488 24.5 32.5625 21.8137 32.5625 18.5Z" stroke="white"/>
<path d="M27.9375 53.5V40.5H6.5625C3.24879 40.5 0.5625 43.1863 0.5625 46.5V59.5H21.9375C25.2512 59.5 27.9375 56.8137 27.9375 53.5Z" stroke="white"/>
<path d="M8.5232 46.8824L14.0312 43.7024L19.5393 46.8824V53.2426L14.0312 56.4226L8.5232 53.2426V46.8824Z" stroke="#7ACC00"/>
<line x1="14.0112" y1="46.9785" x2="14.0112" y2="50.5467" stroke="#7ACC00"/>
<line x1="14.3713" y1="49.8422" x2="11.2812" y2="51.6263" stroke="#7ACC00"/>
<line y1="-0.5" x2="3.5682" y2="-0.5" transform="matrix(0.866025 0.5 0.5 -0.866025 13.8162 49.4092)" stroke="#7ACC00"/>
</svg>

<?xml version="1.0" encoding="utf-8"?>
<!-- Generator: Adobe Illustrator 23.0.1, SVG Export Plug-In . SVG Version: 6.00 Build 0)  -->
<svg version="1.1" id="Layer_1" xmlns="http://www.w3.org/2000/svg" xmlns:xlink="http://www.w3.org/1999/xlink" x="0px" y="0px"
	 viewBox="0 0 62 65" style="enable-background:new 0 0 62 65;" xml:space="preserve">
<style type="text/css">
	.st0{fill-rule:evenodd;clip-rule:evenodd;fill:#FFFFFF;}
	.st1{fill:#FFFFFF;fill-opacity:0.7;}
	.st2{fill:#93CB40;}
	.st3{fill:none;stroke:#93CB40;}
	.st4{fill:none;stroke:#FFFFFF;}
</style>
<path class="st0" d="M14.5,64.6l0.1-1c0.2,0,0.3,0,0.5,0h0.5v1h-0.5C14.9,64.6,14.7,64.6,14.5,64.6z M45.4,64.6v-1h0.5
	c0.2,0,0.3,0,0.5,0l0.1,1c-0.2,0-0.4,0-0.6,0H45.4z M49,63.6l-0.6-0.8c0.2-0.2,0.5-0.4,0.7-0.7l0.8,0.6C49.6,63,49.3,63.3,49,63.6z
	 M49.9,2l-0.8,0.6c-0.2-0.2-0.4-0.5-0.7-0.7L49,1.2C49.3,1.4,49.6,1.7,49.9,2z M15.6,0.1h-0.5c-0.2,0-0.4,0-0.6,0l0.1,1
	c0.2,0,0.3,0,0.5,0h0.5V0.1z M12,1.2L12.6,2c-0.2,0.2-0.5,0.4-0.7,0.7L11.1,2C11.4,1.7,11.7,1.4,12,1.2z M11.1,62.7l0.8-0.6
	c0.2,0.2,0.4,0.5,0.7,0.7L12,63.6C11.7,63.3,11.4,63,11.1,62.7z M10.1,37.7h1v-1h-1V37.7z M10.1,34.5h1v-1h-1V34.5z M10.1,31.3h1v-1
	h-1V31.3z M10.1,28.1h1v-1h-1V28.1z M10.1,24.8h1v-1h-1V24.8z M10.1,21.6h1v-1h-1V21.6z M10.1,18.4h1v-1h-1V18.4z M10.1,15.2h1v-1
	h-1V15.2z M10.1,12h1v-1h-1V12z M10.1,8.8h1v-1h-1V8.8z M10.1,5.6h1V5.1c0-0.2,0-0.3,0-0.5l-1-0.1c0,0.2,0,0.4,0,0.6V5.6z M18,0.1v1
	h1v-1H18z M21.4,0.1v1h1v-1H21.4z M24.8,0.1v1h1v-1H24.8z M28.3,0.1v1h1v-1H28.3z M31.7,0.1v1h1v-1H31.7z M35.1,0.1v1h1v-1H35.1z
	 M38.6,0.1v1h1v-1H38.6z M42,0.1v1h1v-1H42z M45.4,0.1v1h0.5c0.2,0,0.3,0,0.5,0l0.1-1c-0.2,0-0.4,0-0.6,0H45.4z M50.9,27.1h-1v1h1
	V27.1z M50.9,30.3h-1v1h1V30.3z M50.9,33.5h-1v1h1V33.5z M50.9,36.7h-1v1h1V36.7z M50.9,39.9h-1v1h1V39.9z M50.9,43.1h-1v1h1V43.1z
	 M50.9,46.3h-1v1h1V46.3z M50.9,49.5h-1v1h1V49.5z M50.9,52.7h-1v1h1V52.7z M50.9,55.9h-1v1h1V55.9z M50.9,59.1h-1v0.5
	c0,0.2,0,0.3,0,0.5l1,0.1c0-0.2,0-0.4,0-0.6V59.1z M43,64.6v-1h-1v1H43z M39.6,64.6v-1h-1v1H39.6z M36.2,64.6v-1h-1v1H36.2z
	 M32.7,64.6v-1h-1v1H32.7z M29.3,64.6v-1h-1v1H29.3z M25.9,64.6v-1h-1v1H25.9z M22.4,64.6v-1h-1v1H22.4z M19,64.6v-1h-1v1H19z"/>
<path class="st1" d="M15.8,9.3h3c0.6,0,1,0.4,1,1v3c0,0.6-0.4,1-1,1h-3c-0.6,0-1-0.4-1-1v-3C14.8,9.7,15.2,9.3,15.8,9.3z"/>
<path class="st1" d="M24.5,9.3h3c0.6,0,1,0.4,1,1v3c0,0.6-0.4,1-1,1h-3c-0.6,0-1-0.4-1-1v-3C23.5,9.7,23.9,9.3,24.5,9.3z"/>
<path class="st1" d="M15.7,19.5h3c0.6,0,1,0.4,1,1v3c0,0.6-0.4,1-1,1h-3c-0.6,0-1-0.4-1-1v-3C14.7,20,15.1,19.5,15.7,19.5z"/>
<path class="st1" d="M24.4,19.5h3c0.6,0,1,0.4,1,1v3c0,0.6-0.4,1-1,1h-3c-0.6,0-1-0.4-1-1v-3C23.4,20,23.9,19.5,24.4,19.5z"/>
<path class="st1" d="M15.7,29.8h3c0.6,0,1,0.4,1,1v3c0,0.6-0.4,1-1,1h-3c-0.6,0-1-0.4-1-1v-3C14.7,30.2,15.1,29.8,15.7,29.8z"/>
<path class="st1" d="M24.4,29.8h3c0.6,0,1,0.4,1,1v3c0,0.6-0.4,1-1,1h-3c-0.6,0-1-0.4-1-1v-3C23.4,30.2,23.9,29.8,24.4,29.8z"/>
<path class="st1" d="M33.2,29.9h3c0.6,0,1,0.4,1,1v3c0,0.6-0.4,1-1,1h-3c-0.6,0-1-0.4-1-1v-3C32.2,30.4,32.6,29.9,33.2,29.9z"/>
<path class="st1" d="M41.9,29.9h3c0.6,0,1,0.4,1,1v3c0,0.6-0.4,1-1,1h-3c-0.6,0-1-0.4-1-1v-3C40.9,30.4,41.4,29.9,41.9,29.9z"/>
<path class="st1" d="M33.1,39.9h3c0.6,0,1,0.4,1,1v3c0,0.6-0.4,1-1,1h-3c-0.6,0-1-0.4-1-1v-3C32.1,40.4,32.5,39.9,33.1,39.9z"/>
<path class="st1" d="M33.1,49.9h3c0.6,0,1,0.4,1,1v3c0,0.6-0.4,1-1,1h-3c-0.6,0-1-0.4-1-1v-3C32.1,50.4,32.5,49.9,33.1,49.9z"/>
<path class="st1" d="M42,39.9h3c0.6,0,1,0.4,1,1v3c0,0.6-0.4,1-1,1h-3c-0.6,0-1-0.4-1-1v-3C41,40.4,41.4,39.9,42,39.9z"/>
<path class="st1" d="M41.9,49.9h3c0.6,0,1,0.4,1,1v3c0,0.6-0.4,1-1,1h-3c-0.6,0-1-0.4-1-1v-3C40.9,50.4,41.4,49.9,41.9,49.9z"/>
<path class="st2" d="M38,14.9l-0.3-0.4l-0.4,0.4l0.4,0.4L38,14.9z M41.9,10.7l-4.2,3.9l0.7,0.7l4.2-3.9L41.9,10.7z M37.7,15.3
	l4.2,4.1l0.7-0.7l-4.2-4.1L37.7,15.3z"/>
<path class="st2" d="M55.2,14.9l0.3-0.4l0.4,0.4l-0.4,0.4L55.2,14.9z M51.3,10.7l4.2,3.9l-0.7,0.7l-4.2-3.9L51.3,10.7z M55.6,15.3
	l-4.2,4.1l-0.7-0.7l4.2-4.1L55.6,15.3z"/>
<path class="st3" d="M48.6,10.9L45,19.2"/>
<path class="st4" d="M32.6,18.5v-13h21.8c3.3,0,6,2.7,6,6v13H38.6C35.2,24.5,32.6,21.8,32.6,18.5z"/>
<path class="st4" d="M27.9,53.5v-13H6.6c-3.3,0-6,2.7-6,6v13h21.4C25.3,59.5,27.9,56.8,27.9,53.5z"/>
<path class="st3" d="M8.5,46.9l5.5-3.2l5.5,3.2v6.4L14,56.4l-5.5-3.2V46.9z"/>
<line class="st3" x1="14" y1="47" x2="14" y2="50.5"/>
<line class="st3" x1="14.4" y1="49.8" x2="11.3" y2="51.6"/>
<line class="st3" x1="13.6" y1="49.8" x2="16.7" y2="51.6"/>
</svg>
